X: 19269
T: Ivory Lady
R: reel
M: 4/4
K: Gmajor
|:Gdeg d2 BA|BG G2 ed BA|G2 cA BG G2|cBAG ABGD|
Gdeg d2 BA|BG G2 ed Bg|edBA BG ~G2|cBAG ABGD:|
|:BBde g2 ed|z ged egg2|eaab a2 g2|eaab abge|
BBde g2 ed|z ged egg2|G2 BABG ~G2|1 cBAG GAFG:|2 cBAG DEGA||

